public/img/icon-check.svg

<svg width="36" height="38" viewBox="0 0 36 38" fill="none" xmlns="http://www.w3.org/2000/svg">
<path fill-rule="evenodd" clip-rule="evenodd" d="M30.0726 9.88687C30.41 10.2338 30.5996 10.7043 30.5996 11.1948C30.5996 11.6854 30.41 12.1558 30.0726 12.5028L15.6726 27.3028C15.335 27.6496 14.8773 27.8444 14.4 27.8444C13.9227 27.8444 13.465 27.6496 13.1274 27.3028L5.9274 19.9028C5.59952 19.5539 5.41809 19.0865 5.42219 18.6015C5.42629 18.1164 5.61559 17.6524 5.94933 17.3094C6.28306 16.9664 6.73452 16.7718 7.20648 16.7676C7.67843 16.7634 8.13312 16.9499 8.4726 17.2869L14.4 23.3789L27.5274 9.88687C27.865 9.54005 28.3227 9.34521 28.8 9.34521C29.2773 9.34521 29.7351 9.54005 30.0726 9.88687Z" fill="#27AE60"/>
</svg>

<svg xmlns="http://www.w3.org/2000/svg" width="36" height="38" fill="none"><path fill="#27AE60" fill-rule="evenodd" d="M30.073 9.887c.337.347.527.817.527 1.308 0 .49-.19.96-.527 1.308l-14.4 14.8a1.776 1.776 0 0 1-1.273.541c-.477 0-.935-.194-1.273-.541l-7.2-7.4a1.878 1.878 0 0 1-.505-1.301c.004-.486.194-.95.527-1.293a1.776 1.776 0 0 1 1.257-.541c.472-.005.927.182 1.267.519l5.927 6.092L27.527 9.887a1.776 1.776 0 0 1 1.273-.542c.477 0 .935.195 1.273.542Z" clip-rule="evenodd"/></svg>
